uploads/global/arrow-right-white.svg

<svg height="15" viewBox="0 0 22 15" width="22" xmlns="http://www.w3.org/2000/svg"><g fill="none" fill-rule="evenodd" transform="translate(-17 -21)"><rect height="56" rx="28" width="56"/><path d="m18.4545477 28.0663114h17.9937237l-5.5877544-5.3313341c-.172261-.1701703-.1697974-.4406644.005537-.6079527.1753344-.1672884.4588384-.1696389.6371934-.005283l6.3636672 6.0716406c.1774472.1693553.1774472.4438803 0 .6132356l-6.3636672 6.0716406c-.178355.1643559-.461859.1620054-.6371934-.005283-.1753344-.1672883-.177798-.4377824-.005537-.6079527l5.5877544-5.3313341h-17.9937237c-.2510398 0-.4545477-.194169-.4545477-.4336886s.2035079-.4336886.4545477-.4336886z" stroke="#fff" stroke-width="1.333333"/></g></svg>

<?xml version="1.0" encoding="UTF-8"?>
<svg width="22px" height="15px" viewBox="0 0 22 15" version="1.1" xmlns="http://www.w3.org/2000/svg" xmlns:xlink="http://www.w3.org/1999/xlink">
    <!-- Generator: Sketch 52.5 (67469) - http://www.bohemiancoding.com/sketch -->
    <title>arrow-right</title>
    <desc>Created with Sketch.</desc>
    <g id="Page-1" stroke="none" stroke-width="1" fill="none" fill-rule="evenodd">
        <g id="logo-for-web-copy" transform="translate(-259.000000, -31.000000)">
            <g id="arrow-right" transform="translate(242.000000, 10.000000)">
                <rect id="Combined-Shape" x="0" y="0" width="56" height="56" rx="28"></rect>
                <path d="M18.4545477,28.0663114 L36.4482714,28.0663114 L30.860517,22.7349773 C30.688256,22.564807 30.6907196,22.2943129 30.866054,22.1270246 C31.0413884,21.9597362 31.3248924,21.9573857 31.5032474,22.1217416 L37.8669146,28.1933822 C38.0443618,28.3627375 38.0443618,28.6372625 37.8669146,28.8066178 L31.5032474,34.8782584 C31.3248924,35.0426143 31.0413884,35.0402638 30.866054,34.8729754 C30.6907196,34.7056871 30.688256,34.435193 30.860517,34.2650227 L36.4482714,28.9336886 L18.4545477,28.9336886 C18.2035079,28.9336886 18,28.7395196 18,28.5 C18,28.2604804 18.2035079,28.0663114 18.4545477,28.0663114 Z" id="Path" stroke="#FFFFFF" stroke-width="1.33333333"></path>
            </g>
        </g>
    </g>
</svg>
